X:71
T:Durham Hornpipe. JBu.71
O:England,South Yorkshire
S:Joshua Burnett’s MS,c1835,S.Yorkshire
M:C|
L:1/8
Q:1/2=80
R:.hornpipe
Z:vmp.R.Greig.2011
K:D
AG|FA D2-DFED|CEA,2A,2AG|FAD2-DFED|FABc dABG|
FA D2-DFED|CE A,2A,2AG|(3FAF DF (3EGE C>E|D2D2D2:|
|:(de)|fefd fdAc|dfge dcBA|(Bd)(ce) dfed|c2e2-e2 de|
fefg afdA|Bgec dcBA|Bdce dBAGF2D2D2:|
|:FG|A>F (3FAF DF (3EAF|A>F (3FAF D>F (3FAF|G>E (3EGE C>E (3EGE|G>E (3EGE C>E (3EGE|
A>F (3FAF B>G (3GBG|cABc (dc)de|fdec dBAG|F2D2D2:|

